X:117
T:Fox and Geese
Z:Jack Campin, http://www.campin.me.uk/
F:Jack Campin's Nine-Note Tunebook
% last edit 30-08-2013
M:6/8
L:1/8
Q:3/8=112
S:Brian Peters, via Bob Ellis on melodeon.net
K:G
G2d  dcB  |.A2B ({A}c3)|BAG GAB|({AB} A2)G    FED  |
G2d  dcB  |.A2B ({A}c3)|BAG c2B|      AGF     G3  :|
F2G .A.G.F| F2G     ABc|d2B d2B|({GB}.d).B.G .d.B.G|
F2G .A.G.F| F2G     ABc|dBG c2B|      AGF     G3  :|

